assets/illustrations/spots/letter-error-empty.svg

<svg width="522" height="506" viewBox="0 0 522 506" fill="none" xmlns="http://www.w3.org/2000/svg"><path d="M468.097 145.764c-26.182-22.316-61.92-34.433-97.631-42.399a727.875 727.875 0 0 0-19.734-4.062c-23.184-4.42-44.561-14.132-61.893-28.117l-.337-.246c-18.672-15.152-34.65-33.093-56.196-45.344-15.287-8.569-32.773-13.788-50.935-15.204-18.162-1.416-36.451 1.015-53.274 7.08-33.355 12.587-58.164 41.061-61.686 72.28-4.247 37.401 20.018 74.734 11.627 111.577C67.68 246.852 7.625 287.934 7.003 334.328c-.284 22.873 17.274 56.078 39.105 69.178 21.83 13.099 49.696 17.45 76.007 14.527 40.14-4.463 75.101-44.631 111.615-59.783 39.225-16.328 81.163-27.29 124.305-32.491 29.212-3.504 59.563-4.463 86.159-15.621 33.666-14.103 57.102-44.296 61.142-76.385 4.04-32.09-10.617-65.339-37.239-87.989Z" fill="#B9CBD3" style="mix-blend-mode:luminosity" opacity=".16"/><g opacity=".1" filter="url(#letter/error-empty__a)"><ellipse cx="261.497" cy="461.145" rx="244.502" ry="27.978" fill="#0A0F1A"/></g><g filter="url(#letter/error-empty__b)"><path fill-rule="evenodd" clip-rule="evenodd" d="M392.003 31.937c3.382 0 6.124 2.841 6.125 6.345l-.001 147.99v72.087l-24.505 18.02v.001l-81.846 60.163-.001-.001-.001.001-34.532-25.383-34.437 25.383h-.121l-81.845-60.162-24.506-18.022V38.282c0-3.504 2.743-6.345 6.127-6.345h269.543Z" fill="#fff"/></g><path d="M303.067 247.966h-92.379c-2.847 0-5.133 2.525-5.133 5.669 0 3.121 2.286 5.667 5.133 5.667h92.38c2.847 0 5.133-2.546 5.133-5.667-.001-3.143-2.287-5.669-5.134-5.669Zm-20.509 22.671h-51.334c-2.847 0-5.133 2.524-5.133 5.667 0 3.122 2.286 5.668 5.133 5.668h51.334c2.828 0 5.133-2.546 5.133-5.668 0-3.143-2.307-5.667-5.133-5.667Z" fill="#D2DFE6"/><path d="m397.777 253.266-24.506 19.207-81.821 64.122h-69.116l-81.845-64.122-24.506-19.207-49.012-38.417v216.438c0 8.137 3.326 15.35 8.471 20.291h-.023c.023.027.048.027.072.054 3.996 3.805 9.022 6.288 14.622 6.578h333.774c2.824-.131 5.385-.951 7.85-2.034h.12c8.806-4.042 14.932-13.66 14.932-24.889V214.85l-49.012 38.416Z" fill="#FFD27A"/><path fill-rule="evenodd" clip-rule="evenodd" d="M115.985 167.365v-.001s-12.253 7.865-24.506 17.728v.001c-12.253 9.862-24.505 21.72-24.505 29.705l41.608 32.614 7.403 5.803v-.001l.001.001v-85.851l-.001.001Z" fill="#F5BD4D"/><path d="m446.793 214.91-49.012 38.417v-85.851s49.012 31.463 49.012 47.434Z" fill="#F5BD4D"/><path d="m291.426 336.543-29.953-23.219c-1.122-1.406-2.762-2.297-4.593-2.297s-3.469.892-4.592 2.297h-.007l-29.826 23.219h-.119L75.419 451.526c3.925 3.778 9.07 6.21 14.694 6.632h333.774c2.824-.132 5.385-.951 7.85-2.034h.12c2.321-1.216 4.523-2.721 6.485-4.598L291.426 336.543Z" fill="#FFD686"/><path fill-rule="evenodd" clip-rule="evenodd" d="M220.888 90.954A64.999 64.999 0 0 1 257 80a65.073 65.073 0 0 1 65 65 65 65 0 1 1-101.112-54.046Zm5.53 99.815A55.042 55.042 0 0 0 257 200.046 55.096 55.096 0 0 0 312.046 145a55.042 55.042 0 0 0-33.981-50.856 55.046 55.046 0 0 0-51.647 96.625Zm51.142-69.69a6.212 6.212 0 0 1 2.014 1.351 6.202 6.202 0 0 1 0 8.785l-13.762 13.786 13.762 13.786a6.203 6.203 0 0 1 0 8.785 6.13 6.13 0 0 1-4.38 1.841 6.208 6.208 0 0 1-4.405-1.841l-13.786-13.762-13.786 13.762a6.221 6.221 0 0 1-4.405 1.841 6.115 6.115 0 0 1-4.38-1.841 6.185 6.185 0 0 1-1.826-4.392 6.204 6.204 0 0 1 1.826-4.393l13.762-13.786-13.762-13.786a6.224 6.224 0 0 1 4.464-10.365 6.224 6.224 0 0 1 4.321 1.58l13.786 13.762 13.786-13.762a6.201 6.201 0 0 1 6.771-1.351Z" fill="#D2DFE6"/><defs><filter id="letter/error-empty__a" x=".995" y="417.168" width="521.005" height="87.955" filterUnits="userSpaceOnUse" color-interpolation-filters="sRGB"><feFlood flood-opacity="0" result="BackgroundImageFix"/><feBlend in="SourceGraphic" in2="BackgroundImageFix" result="shape"/><feGaussianBlur stdDeviation="8" result="effect1_foregroundBlur_10272_1643"/></filter><filter id="letter/error-empty__b" x="104.333" y="21.937" width="305.795" height="328.606" filterUnits="userSpaceOnUse" color-interpolation-filters="sRGB"><feFlood flood-opacity="0" result="BackgroundImageFix"/><feColorMatrix in="SourceAlpha" values="0 0 0 0 0 0 0 0 0 0 0 0 0 0 0 0 0 0 127 0" result="hardAlpha"/><feOffset dy="2"/><feGaussianBlur stdDeviation="6"/><feColorMatrix values="0 0 0 0 0.374547 0 0 0 0 0.481553 0 0 0 0 0.601935 0 0 0 0.15 0"/><feBlend in2="BackgroundImageFix" result="effect1_dropShadow_10272_1643"/><feBlend in="SourceGraphic" in2="effect1_dropShadow_10272_1643" result="shape"/></filter></defs></svg>

<svg width="522" height="506" viewBox="0 0 522 506" fill="none" xmlns="http://www.w3.org/2000/svg">
<path d="M290.153 4.90118C164.591 -13.2698 48.0715 73.7882 29.9005 199.351C11.7295 324.913 98.7876 441.432 224.35 459.603C349.913 477.774 466.432 390.716 484.603 265.154C502.774 139.591 415.716 23.0722 290.153 4.90118Z" fill="#B2DFFD" fill-opacity="0.5"/>
<g opacity="0.1" filter="url(#filter0_f_10272_1643)">
<ellipse cx="261.498" cy="461.145" rx="244.502" ry="27.9777" fill="#0A0F1A"/>
</g>
<g filter="url(#filter1_d_10272_1643)">
<path fill-rule="evenodd" clip-rule="evenodd" d="M392.003 31.9367C395.386 31.9367 398.128 34.7781 398.129 38.2819L398.128 186.272V258.359L373.623 276.379V276.38L291.777 336.543L291.776 336.542L291.775 336.543L257.243 311.16L222.806 336.543H222.805L222.805 336.543H222.685L140.84 276.381L116.334 258.359V186.272V38.2827C116.334 34.7781 119.077 31.9367 122.461 31.9367H392.003Z" fill="#F6F6F6"/>
</g>
<path d="M303.068 247.966H210.689C207.841 247.966 205.556 250.491 205.556 253.635C205.556 256.756 207.841 259.302 210.689 259.302H303.069C305.916 259.302 308.202 256.756 308.202 253.635C308.201 250.492 305.915 247.966 303.068 247.966Z" fill="#8C8C8C"/>
<path d="M282.559 270.637H231.225C228.378 270.637 226.092 273.161 226.092 276.304C226.092 279.426 228.378 281.972 231.225 281.972H282.559C285.387 281.972 287.692 279.426 287.692 276.304C287.692 273.161 285.385 270.637 282.559 270.637Z" fill="#8C8C8C"/>
<path d="M397.778 253.266L373.272 272.473L291.451 336.595H222.454H222.335L140.49 272.473L115.984 253.266L66.9717 214.849V431.287C66.9717 439.424 70.2983 446.637 75.4433 451.578H75.4196C75.4433 451.605 75.4678 451.605 75.4915 451.632C79.4884 455.437 84.5135 457.92 90.1141 458.21H423.888C426.712 458.079 429.273 457.259 431.737 456.176H431.858C440.664 452.134 446.79 442.516 446.79 431.287V214.85L397.778 253.266Z" fill="#0096FA"/>
<path fill-rule="evenodd" clip-rule="evenodd" d="M115.986 167.365V167.364C115.986 167.364 103.732 175.229 91.4802 185.092V185.093C79.2273 194.955 66.9746 206.813 66.9746 214.798L108.583 247.412L115.986 253.215V253.214L115.987 253.215V167.364C115.987 167.364 115.986 167.365 115.986 167.365Z" fill="#0D4FC1"/>
<path d="M446.794 214.91L397.782 253.327V167.476C397.782 167.476 446.794 198.939 446.794 214.91Z" fill="#0D4FC1"/>
<path d="M291.427 336.543L261.474 313.324C260.352 311.918 258.712 311.027 256.881 311.027C255.05 311.027 253.412 311.919 252.289 313.324H252.282L222.456 336.543H222.337L75.4199 451.526C79.345 455.304 84.4901 457.736 90.1144 458.158H423.888C426.712 458.026 429.273 457.207 431.738 456.124H431.858C434.179 454.908 436.381 453.403 438.343 451.526L291.427 336.543Z" fill="#18A0FB"/>
<path fill-rule="evenodd" clip-rule="evenodd" d="M220.889 90.9545C231.578 83.8122 244.145 80 257.001 80C274.234 80.0198 290.756 86.8743 302.941 99.0599C315.127 111.245 321.981 127.767 322.001 145C322.001 157.856 318.189 170.423 311.047 181.112C303.904 191.801 293.753 200.132 281.875 205.052C269.998 209.972 256.929 211.259 244.32 208.751C231.711 206.243 220.129 200.052 211.039 190.962C201.949 181.872 195.758 170.29 193.25 157.681C190.742 145.072 192.029 132.003 196.949 120.126C201.869 108.248 210.2 98.0968 220.889 90.9545ZM226.419 190.769C235.471 196.818 246.114 200.046 257.001 200.046C271.596 200.033 285.59 194.229 295.91 183.909C306.23 173.589 312.034 159.595 312.047 145C312.047 134.113 308.819 123.47 302.77 114.418C296.721 105.366 288.124 98.3105 278.066 94.1442C268.008 89.9779 256.94 88.8878 246.262 91.0117C235.584 93.1357 225.776 98.3783 218.078 106.077C210.379 113.775 205.137 123.583 203.013 134.261C200.889 144.939 201.979 156.007 206.145 166.065C210.311 176.123 217.367 184.72 226.419 190.769ZM277.561 121.079C278.314 121.392 278.999 121.852 279.575 122.43C280.153 123.006 280.612 123.69 280.926 124.444C281.239 125.198 281.4 126.006 281.4 126.822C281.4 127.639 281.239 128.447 280.926 129.201C280.612 129.954 280.153 130.639 279.575 131.215L265.813 145.001L279.575 158.787C280.153 159.363 280.612 160.048 280.926 160.801C281.239 161.555 281.4 162.363 281.4 163.18C281.4 163.996 281.239 164.804 280.926 165.558C280.612 166.312 280.153 166.996 279.575 167.572C279.004 168.155 278.323 168.619 277.571 168.935C276.819 169.251 276.011 169.414 275.195 169.413C274.376 169.412 273.565 169.248 272.809 168.932C272.053 168.616 271.367 168.154 270.79 167.572L257.004 153.81L243.217 167.572C242.641 168.154 241.955 168.616 241.199 168.932C240.443 169.248 239.632 169.412 238.813 169.413C237.997 169.414 237.189 169.251 236.437 168.935C235.685 168.619 235.004 168.155 234.433 167.572C233.854 166.996 233.395 166.312 233.082 165.558C232.769 164.804 232.607 163.996 232.607 163.18C232.607 162.363 232.769 161.555 233.082 160.801C233.395 160.048 233.854 159.363 234.433 158.787L248.195 145.001L234.433 131.215C233.374 130.029 232.808 128.484 232.852 126.894C232.897 125.305 233.548 123.793 234.672 122.669C235.796 121.545 237.308 120.894 238.897 120.85C240.486 120.805 242.032 121.371 243.217 122.43L257.004 136.192L270.79 122.43C271.366 121.852 272.05 121.392 272.804 121.079C273.558 120.766 274.366 120.605 275.182 120.605C275.999 120.605 276.807 120.766 277.561 121.079Z" fill="#8C8C8C"/>
<defs>
<filter id="filter0_f_10272_1643" x="0.996094" y="417.167" width="521.005" height="87.9554" filterUnits="userSpaceOnUse" color-interpolation-filters="sRGB">
<feFlood flood-opacity="0" result="BackgroundImageFix"/>
<feBlend mode="normal" in="SourceGraphic" in2="BackgroundImageFix" result="shape"/>
<feGaussianBlur stdDeviation="8" result="effect1_foregroundBlur_10272_1643"/>
</filter>
<filter id="filter1_d_10272_1643" x="104.334" y="21.9367" width="305.795" height="328.606" filterUnits="userSpaceOnUse" color-interpolation-filters="sRGB">
<feFlood flood-opacity="0" result="BackgroundImageFix"/>
<feColorMatrix in="SourceAlpha" type="matrix" values="0 0 0 0 0 0 0 0 0 0 0 0 0 0 0 0 0 0 127 0" result="hardAlpha"/>
<feOffset dy="2"/>
<feGaussianBlur stdDeviation="6"/>
<feColorMatrix type="matrix" values="0 0 0 0 0.374547 0 0 0 0 0.481553 0 0 0 0 0.601935 0 0 0 0.15 0"/>
<feBlend mode="normal" in2="BackgroundImageFix" result="effect1_dropShadow_10272_1643"/>
<feBlend mode="normal" in="SourceGraphic" in2="effect1_dropShadow_10272_1643" result="shape"/>
</filter>
</defs>
</svg>
